X: 22136
T: Kusnacht
R: waltz
M: 3/4
K: Amajor
|:E2 e3 E|E2 d3 E|cee dcB|{AB}A2 F3 E|
DEF GAB|{B}c2A2E2|DEF GAB|ABc B{cB}cA|
E2 e3 E|E2 d3 E|cee dcB|{AB}A2 F3 E|
DEF GAB|{B}c2 A2 E2|d2 cABG|1 A3 BAF:|2 A3 Bcd||
|:e2 a3 g|ge c3 B|ABc def|{ef}e2 c2 A2|
DEF GAB|{B}c2A2E2|DEF GAB|ABc B{cB}cd|
e2 a3 g|ge c3 B|ABc def|{ef}e2c2A2|
DEF GAB|{B}c2A2E2|d2 cABG|1 A3 Bcd:|2 A6||

